src/Images/show-password.svg

<svg width="24" height="24" viewBox="0 0 24 24" fill="none" xmlns="http://www.w3.org/2000/svg">
<path fill-rule="evenodd" clip-rule="evenodd" d="M7.66162 5.95452L5.70711 4L4.29289 5.41421L5.98702 7.10834C4.7207 8.12318 3.4607 9.45609 2.20523 11.1002C1.93159 11.4585 1.93159 11.9557 2.20523 12.314C5.43017 16.5372 8.68497 18.7071 12 18.7071C13.4569 18.7071 14.9022 18.288 16.3384 17.4597L18.2929 19.4142L19.7071 18L18.013 16.3059C19.2793 15.291 20.5393 13.9581 21.7948 12.314C22.0684 11.9557 22.0684 11.4585 21.7948 11.1002C18.5698 6.87697 15.315 4.70711 12 4.70711C10.5431 4.70711 9.09783 5.12621 7.66162 5.95452ZM7.4106 8.53192C6.38436 9.32605 5.33714 10.3825 4.27049 11.7071C6.98096 15.0732 9.56601 16.7071 12 16.7071C12.9321 16.7071 13.8864 16.4675 14.8614 15.9827L7.4106 8.53192ZM16.5894 14.8823L9.13861 7.43151C10.1136 6.94673 11.0679 6.70711 12 6.70711C14.434 6.70711 17.019 8.34101 19.7295 11.7071C18.6629 13.0318 17.6156 14.0882 16.5894 14.8823Z" fill="#CCCDC2"/>
</svg>

<svg width="24" height="24" fill="none" xmlns="http://www.w3.org/2000/svg"><path fill-rule="evenodd" clip-rule="evenodd" d="M7.662 5.955 5.707 4 4.293 5.414l1.694 1.694C4.721 8.123 3.461 9.456 2.205 11.1a1 1 0 0 0 0 1.214c3.225 4.223 6.48 6.393 9.795 6.393 1.457 0 2.902-.419 4.338-1.247l1.955 1.954L19.707 18l-1.694-1.694c1.266-1.015 2.526-2.348 3.782-3.992a1 1 0 0 0 0-1.214C18.57 6.877 15.315 4.707 12 4.707c-1.457 0-2.902.42-4.338 1.248zM7.41 8.532c-1.027.794-2.074 1.85-3.14 3.175 2.71 3.366 5.295 5 7.729 5 .932 0 1.886-.24 2.861-.724l-7.45-7.451zm9.178 6.35-7.45-7.45c.975-.485 1.929-.725 2.861-.725 2.434 0 5.019 1.634 7.73 5-1.067 1.325-2.114 2.381-3.14 3.175z" fill="#CCCDC2"/></svg>
